!!!COM: Bach, Johann Sebastian
!!!CDT: 1685/03/31-1750/07/28
!!!OPR@@DE: Die Kunst der Fuge
!!!OPR@EN: The Art of the Fugue
!!!OTL: Contrapunctus 1, a 4.
!!!SCA: BWV 1080
!!!voices: 4
!!!AGN: Simple fugue
**kern	**kern	**kern	**kern
*part4	*part3	*part2	*part1
*staff4	*staff3	*staff2	*staff1
*clefF4	*clefC4	*clefC3	*clefC1
*mclefF4	*mclefC3	*mclefG2	*mclefG2
*k[b-]	*k[b-]	*k[b-]	*k[b-]
*d:	*d:	*d:	*d:
*M2/2	*M2/2	*M2/2	*M2/2
*met(c|)	*met(c|)	*met(c|)	*met(c|)
*mmet(c|)	*mmet(c|)	*mmet(c|)	*mmet(c|)
*MM100	*MM100	*MM100	*MM100
=1	=1	=1	=1
1r	1r	2d	1r
.	.	2a	.
=2	=2	=2	=2
1r	1r	2f	1r
.	.	2d	.
=3	=3	=3	=3
1r	1r	2c#X	1r
.	.	4d	.
.	.	4e	.
=4	=4	=4	=4
1r	1r	[2f	1r
.	.	8fL]	.
.	.	8g	.
.	.	8f	.
.	.	8eJ	.
=5	=5	=5	=5
1r	1r	4d	2a
.	.	4e	.
.	.	4f	2dd
.	.	4g	.
=6	=6	=6	=6
1r	1r	4a	2cc
.	.	8AL	.
.	.	8BnJ	.
.	.	8cL	2a
.	.	8AJ	.
.	.	[4f	.
=7	=7	=7	=7
1r	1r	8fL]	2g#X
.	.	8BnJ	.
.	.	[4e	.
.	.	8eL]	4a
.	.	8f	.
.	.	8e	4bn
.	.	8dJ	.
=8	=8	=8	=8
1r	1r	4e	[2cc
.	.	4f#X	.
.	.	[2g	8ccL]
.	.	.	8dd
.	.	.	8cc
.	.	.	8b-XJ
!!LO:LB:g=original
=9	=9	=9	=9
2D	1r	4g]	8aL
.	.	.	8dJ
.	.	4f	2dd
2A	.	2e	.
.	.	.	4cc#X
=10	=10	=10	=10
2F	1r	4.d	8ddL
.	.	.	8aJ
.	.	.	[4ccn
.	.	8e	.
2D	.	4.f	8ccL]
.	.	.	8aJ
.	.	.	[4b-
.	.	8d	.
=11	=11	=11	=11
2C#X	1r	4.g	8b-L]
.	.	.	8eJ
.	.	.	[2.a
.	.	8g	.
4D	.	8fL	.
.	.	8e	.
4E	.	8d	.
.	.	8c#XJ	.
=12	=12	=12	=12
[2F	1r	4d	8a]
.	.	.	4cc
.	.	2g	.
.	.	.	8bn
8FL]	.	.	[2cc
8G	.	.	.
8F	.	4c	.
8EJ	.	.	.
=13	=13	=13	=13
2D	2A	4.f	8ccL]
.	.	.	8dJ
.	.	.	[4cc
.	.	8e	.
2r	2d	4.f	8cc]L
.	.	.	8aJ
.	.	.	[4bn
.	.	8G#X	.
=14	=14	=14	=14
4r	2c	2.e	4b]
8AAL	.	.	8aL
8BBnJ	.	.	8g#XJ
8CL	2A	.	2a
8AAJ	.	.	.
[4F	.	8dL	.
.	.	8cJ	.
=15	=15	=15	=15
8FL]	2G#X	8dL	2bn
8BBnJ	.	8f	.
[4E	.	8e	.
.	.	8dJ	.
8EL]	4A	4c	4cc
8F	.	.	.
8E	4Bn	4r	4dd
8DJ	.	.	.
!!LO:LB:g=original
=16	=16	=16	=16
8EL	[2c	1r	8gL
8G	.	.	8b-XJ
8F#X	.	.	[4a
8AJ	.	.	.
2G	8cL]	.	8aL]
.	8d	.	8b-
.	8c	.	8a
.	8B-XJ	.	[8gJ
=17	=17	=17	=17
2.D	[2A	1r	8gL]
.	.	.	8e
.	.	.	8f
.	.	.	8dJ
.	8AL]	.	[2b-
.	8FJ	.	.
8EL	4G	.	.
8DJ	.	.	.
=18	=18	=18	=18
4E	[2c	1r	8b-L]
.	.	.	8gJ
8FL	.	.	4a
8EJ	.	.	.
4F#X	8cL]	.	[2dd
.	8AJ	.	.
8GL	4Bn	.	.
8F#J	.	.	.
=19	=19	=19	=19
4G#X	[2e	1r	8ddL]
.	.	.	8bnJ
8AL	.	.	4cc
8G#J	.	.	.
4A	8eL]	.	[2ff
.	8c#XJ	.	.
8B-L	4d	.	.
8AJ	.	.	.
=20	=20	=20	=20
4Bn	[2g	1r	8ffL]
.	.	.	8ddJ
8cL	.	.	4ee
8BJ	.	.	.
4c#X	8gL]	.	4a
.	8eJ	.	.
8dL	4f	.	[4dd
8G#XJ	.	.	.
=21	=21	=21	=21
[2A	4.e	1r	8ddL]
.	.	.	8bnJ
.	.	.	4cc
.	8a	.	.
8AL]	4.d	.	4f
8FJ	.	.	.
[4G	.	.	4b-X
.	8e	.	.
!!LO:LB:g=original
=22	=22	=22	=22
8GL]	4c#X	1r	2a
8EJ	.	.	.
[4F	8dL	.	.
.	8AJ	.	.
8F]L	4.Bn	.	4d
8DJ	.	.	.
4E	.	.	[4g
.	8c#	.	.
=23	=23	=23	=23
[2D	4d	2d	8gL]
.	.	.	8e
.	[2.A	.	8f
.	.	.	8ddJ
8DL]	.	2a	[2e
8BBnJ	.	.	.
4C#X	.	.	.
=24	=24	=24	=24
[4D	2A]	2f	8eL]
.	.	.	8dJ
8DL]	.	.	2a
8CJ	.	.	.
2BB-	2B-	2d	.
.	.	.	4g
=25	=25	=25	=25
4.AA	8r	2c#X	2a
.	8E	.	.
.	[4A	.	.
8GG	.	.	.
8FFL	8A]L	4d	2r
8GG	8B-	.	.
8FF	8A	4e	.
8EEJ	8GJ	.	.
=26	=26	=26	=26
8DDL	4A	[2f	1r
8FF	.	.	.
8EE	4Bn	.	.
8DDJ	.	.	.
4.AA	[2c	8fL]	.
.	.	8g	.
.	.	8f	.
8FF	.	8eJ	.
=27	=27	=27	=27
4.BB-	8cL]	4d	1r
.	8AJ	.	.
.	4B-	[4g	.
8GG	.	.	.
4.D	4A	8gL]	.
.	.	8eJ	.
.	[4d	4f	.
8F	.	.	.
=28	=28	=28	=28
4.A	8dL]	4e	1r
.	8BnJ	.	.
.	4c	[4a	.
8AA	.	.	.
4EE	4B	8aL]	.
.	.	8f#XJ	.
4r	[4e	4g	.
!!LO:PB:g=original
=29	=29	=29	=29
2r	8eL]	4.f#X	2a
.	8AJ	.	.
.	[4d	.	.
.	.	8dd	.
2E	8d]L	2g#X	2ee
.	8d	.	.
.	8c	.	.
.	8BnJ	.	.
=30	=30	=30	=30
2A	8cL	4a	2cc
.	8dJ	.	.
.	[4e	8r	.
.	.	8A	.
[2F	8e]L	4c	2a
.	8e	.	.
.	8d	4A	.
.	8cJ	.	.
=31	=31	=31	=31
8FL]	2Bn	4d	2g#X
8F	.	.	.
8E	.	4f	.
8DJ	.	.	.
8CL	4c	4e	4a
8D	.	.	.
8C	4G#X	4d	4bn
8BBnJ	.	.	.
=32	=32	=32	=32
2AA	8AL	4c	[2cc
.	8GX	.	.
.	8F#X	2a	.
.	8EJ	.	.
2D	4F#	.	8ccL]
.	.	.	8dd
.	[4G	4d	8cc
.	.	.	8b-XJ
=33	=33	=33	=33
2C#X	8GL]	4e	4a
.	8G	.	.
.	8F	[4a	4r
.	8EJ	.	.
2AA	8FL	8a]L	4r
.	8E	8g	.
.	8D	8f	[4a
.	8C#XJ	8eJ	.
=34	=34	=34	=34
2FF#X	4D	[1d	8aL]
.	.	.	8cc
.	4r	.	8b-
.	.	.	8aJ
4GG	2r	.	8b-L
.	.	.	8a
4AA	.	.	8g
.	.	.	8f#XJ
!!LO:LB:g=original
=35	=35	=35	=35
[2BB-	1r	8dL]	4.g
.	.	8dJ	.
.	.	[4g	.
.	.	.	8b-
8BB-L]	.	8g]L	4.e
8C	.	8gJ	.
8BB-	.	[4c	.
8AAJ	.	.	8f#X
=36	=36	=36	=36
[2GG	1r	8cL]	4.g
.	.	8AJ	.
.	.	4B-	.
.	.	.	8e
8GGL]	.	[2A	4.c#X
8EEJ	.	.	.
4FF	.	.	.
.	.	.	8a
=37	=37	=37	=37
[2BB-	1r	8AL]	4.d
.	.	8FJ	.
.	.	4G	.
.	.	.	8f
8BB-L]	.	[2c	4.e
8GGJ	.	.	.
4AA	.	.	.
.	.	.	8cc
=38	=38	=38	=38
[2D	1r	8cL]	4.f
.	.	8AJ	.
.	.	4Bn	.
.	.	.	8a
8DL]	.	[2e	4.g
8BBnJ	.	.	.
4C	.	.	.
.	.	.	8ee
=39	=39	=39	=39
[2F	1r	8eL]	4.a
.	.	8c#XJ	.
.	.	4d	.
.	.	.	8cc
8FL]	.	[2g	4.bn
8DJ	.	.	.
4E	.	.	.
.	.	.	8gg
=40	=40	=40	=40
4.AA	2E	8gL]	2cc#X
.	.	8aJ	.
.	.	4b-	.
8G	.	.	.
8FL	2A	[2a	4dd
8E	.	.	.
8D	.	.	[4ee
8C#XJ	.	.	.
!!LO:LB:g=original
=41	=41	=41	=41
4.D	2F	2a_	8eeL]
.	.	.	8cc#XJ
.	.	.	[4dd
8FF	.	.	.
2BB-	2D	8aL]	4.dd]
.	.	8fJ	.
.	.	4g	.
.	.	.	8ee
=42	=42	=42	=42
[1AA	2C#X	4.a	8ffL
.	.	.	8eeJ
.	.	.	[4gg
.	.	8b-	.
.	4D	4a	8gg]L
.	.	.	8ff
.	4E	[4g	8ee
.	.	.	8ddJ
=43	=43	=43	=43
4.AA]	[2F	4g]	8cc#XL
.	.	.	8aJ
.	.	8fL	[4dd
8BB-	.	8dJ	.
8AAL	8FL]	4.a	8dd]L
8GGJ	8G	.	8bnJ
4AA	8F	.	[4ccn
.	8EJ	8g	.
=44	=44	=44	=44
4.BB-	2.D	8f#XL	4cc]
.	.	8dJ	.
.	.	[4g	4b-X
8GG	.	.	.
[2D	.	8g]L	4a
.	.	8eJ	.
.	8AL	[4fn	4r
.	8FJ	.	.
=45	=45	=45	=45
4D]	4.B-	8fL]	1r
.	.	8dJ	.
2E	.	[4g	.
.	8G	.	.
.	4.c	8g]L	.
.	.	8eJ	.
[4F	.	[4a	.
.	8A	.	.
=46	=46	=46	=46
4.F]	4d	8aL]	1r
.	.	8fJ	.
.	4G	[4b-	.
8D	.	.	.
4.E	4c	8b-]L	.
.	.	8gJ	.
.	4F	[4a	.
8C#X	.	.	.
!!LO:LB:g=original
=47	=47	=47	=47
4.D	4B-	8aL]	1r
.	.	8fJ	.
.	4E	2g	.
8BBn	.	.	.
8C#XL	2A	.	.
8AAJ	.	.	.
[4D	.	8fL	.
.	.	8dJ	.
=48	=48	=48	=48
8DL]	4E	2a	1r
8Cn	.	.	.
8BBn	[4A	.	.
8AAJ	.	.	.
2BB	8A]L	[2dd	.
.	8G#X	.	.
.	8F#X	.	.
.	8G#J	.	.
=49	=49	=49	=49
4AA	4.A	8ddL]	2ee
.	.	8cc#X	.
4r	.	8bn	.
.	8Gn	8cc#J	.
2r	8FnL	8ddL	2aa
.	8E	8aJ	.
.	8D	[4ee	.
.	8C#XJ	.	.
=50	=50	=50	=50
1r	4D	8eeL]	2ff
.	.	8aJ	.
.	8FL	4dd	.
.	8DJ	.	.
.	4B-	8r	2dd
.	.	8f	.
.	8GL	[4b-	.
.	8EJ	.	.
=51	=51	=51	=51
1r	4.A	8b-L]	2cc#X
.	.	8eJ	.
.	.	[4a	.
.	8f	.	.
.	4Bn	8a]L	4dd
.	.	8g	.
.	4c#X	8f	4ee
.	.	8eJ	.
=52	=52	=52	=52
1r	4d	8dL	[2ff
.	.	8a	.
.	8BnL	8dd	.
.	8GJ	8bnJ	.
.	4c	8gL	8ffL]
.	.	8eJ	8gg
.	8AL	[4cc	8ff
.	8FJ	.	8eeJ
!!LO:PB:g=original
=53	=53	=53	=53
1r	8B-L	4cc]	4.dd
.	8dJ	.	.
.	[4g	4b-	.
.	.	.	8ee
.	8g]L	2a	4cc#X
.	8eJ	.	.
.	[4f	.	8ddL
.	.	.	8ffJ
=54	=54	=54	=54
1r	8fL]	4.g	[2b-
.	8f	.	.
.	8e	.	.
.	8dJ	8f	.
.	2c#X	[2e	8b-L]
.	.	.	8b-
.	.	.	8a
.	.	.	8gJ
=55	=55	=55	=55
1r	8dL	4e]	2f
.	8cn	.	.
.	8B-X	8dL	.
.	8AJ	8c#XJ	.
.	8GL	4d	2b-
.	8A	.	.
.	8B-	[4g	.
.	8cJ	.	.
=56	=56	=56	=56
2D	8dL	4.g]	2.a
.	8AJ	.	.
.	4.d	.	.
.	.	8f	.
2A	.	4.e	.
.	8Bn	.	.
.	[4c#X	.	[4ee
.	.	8e	.
=57	=57	=57	=57
2F	8c#L]	2.a	8eeL]
.	8e	.	8cc#X
.	8A	.	8dd
.	8c#XJ	.	8eeJ
2D	4d	.	8ffL
.	.	.	8ddJ
.	8B-L	8gL	[4gg
.	8GJ	8b-J	.
=58	=58	=58	=58
2C#X	2E	[2a	8ggL]
.	.	.	8ee
.	.	.	8aa
.	.	.	8ggJ
4D	4F	8aL]	8ffL
.	.	8g	8ee
4E	4G	8f	8dd
.	.	8eJ	8cc#XJ
!!LO:LB:g=original
=59	=59	=59	=59
[2F	2A	2.d	8ddL
.	.	.	8ccn
.	.	.	8b-
.	.	.	8aJ
8FL]	4Bn	.	[2g
8G	.	.	.
8F	4c#X	4e	.
8EJ	.	.	.
=60	=60	=60	=60
[2D	4d	4A	8gL]
.	.	.	8e
.	4r	4r	8f
.	.	.	8dJ
8DL]	4r	4r	[2a
8E-X	.	.	.
8D	4F#X	4e-X	.
8CJ	.	.	.
=61	=61	=61	=61
[2BB-	8GL	2d	8aL]
.	8AJ	.	8f#X
.	4B-	.	8g
.	.	.	8b-J
8BB-L]	4r	4r	[2cc
8C	.	.	.
8BB-	4c	4f#X	.
8AAJ	.	.	.
=62	=62	=62	=62
2.GG	2d	8gL	8ccL]
.	.	8f#XJ	8a
.	.	4g	8b-
.	.	.	8ddJ
.	8r	4r	4ee-X
.	4G	.	.
4GG	.	[4b-	4dd
.	8F	.	.
=63	=63	=63	=63
[1AA	4E	8b-L]	4cc#X
.	.	8a	.
.	4r	8ff	[4aa
.	.	8ddJ	.
.	2r	4bn	8aa]L
.	.	.	8ddJ
.	.	8eeL	[4gg
.	.	8cc#XJ	.
=64	=64	=64	=64
1AA_	4r	4a	8ggL]
.	.	.	8cc#XJ
.	8FL	8ddL	[4ff
.	8DJ	8aJ	.
.	4.G	4.b-	8ff]L
.	.	.	8ddnJ
.	.	.	[4ee
.	8C#X	8g	.
!!LO:LB:g=original
=65	=65	=65	=65
2.AA]	4.F	4.a	8eeL]
.	.	.	8cc#XJ
.	.	.	[4dd
.	8D	8f	.
.	2A	4.e	8dd]L
.	.	.	8bnJ
4AA	.	.	[4ccn
.	.	8g	.
=66	=66	=66	=66
4.BB-	4D	8f#XL	4cc]
.	.	8dJ	.
.	2d	[4g	4b-X
8GG	.	.	.
[2D	.	8g]L	4.a
.	.	8eJ	.
.	8AL	[4fn	.
.	8FJ	.	8a
=67	=67	=67	=67
8DL]	[2B-	8fL]	8ddL
8BB-J	.	8ddJ	8ff
4C	.	[4cc	8ee
.	.	.	8ggJ
[2F	8B-L]	4.cc]	8ffL
.	8G#XJ	.	8eeJ
.	4A	.	[4dd
.	.	8cc	.
=68	=68	=68	=68
8FL]	[2d	8b-L	8dd]
8DJ	.	8aJ	4ff
4E	.	4g#X	.
.	.	.	8ee
[2A	8dL]	4.a	8ffL
.	8BnJ	.	8ddJ
.	4c	.	[4ee
.	.	8e	.
=69	=69	=69	=69
8AL]	[2f	4a	8eeL]
8FJ	.	.	8dd
4G	.	[4g	8cc
.	.	.	8bnJ
[2c	8fL]	4.g]	4.cc
.	8dJ	.	.
.	4e-X	.	.
.	.	8cc	8aa
=70	=70	=70	=70
8cL]	2d	4a	8ggL
8AJ	.	.	8ff#X
2B-	.	[4g	8gg
.	.	.	8bb-J
.	4en	4g]	4cc#X
4r	4r	4r	4r
=71	=71	=71	=71
2r	2r	2r	2r
4A	4f	4a	4dd
4r	4r	4r	4r
!!LO:LB:g=original
=72	=72	=72	=72
2r	2r	2r	2r
2G#X	[2f	2bn	[2dd
=73	=73	=73	=73
2.A	4f]	[2a	2dd_
.	8eL	.	.
.	8dJ	.	.
.	4e	4.a]	8ddL]
.	.	.	8bnJ
4AA	4r	.	4cc#X
.	.	8g	.
=74	=74	=74	=74
[1D	2A	8f#XL	4.dd
.	.	8gJ	.
.	.	[4a	.
.	.	.	8cc
.	2d	8a]L	4.b-
.	.	8gJ	.
.	.	[4cc	.
.	.	.	8a
=75	=75	=75	=75
1D_	2B-	8ccL]	2d
.	.	8f#X	.
.	.	8g	.
.	.	8b-J	.
.	2G	2e-X	8r
.	.	.	8gL
.	.	.	8a
.	.	.	[8ccJ
=76	=76	=76	=76
1D_	2F#X	4d	8ccL]
.	.	.	8b-
.	.	4A	8cc
.	.	.	[8ee-J
.	4G	4B-	8ee-]L
.	.	.	8dd
.	4A	4c	8ff#X
.	.	.	[8aaJ
=77	=77	=77	=77
1D_	[2B-	4d	8aaL]
.	.	.	16ggL
.	.	.	16aaJJ
.	.	[4G	8bb-L
.	.	.	8cc#XJ
.	8B-L]	8GL]	[2dd
.	8d	8b-	.
.	8c	8a	.
.	8B-J	[8gJ	.
=78	=78	=78	=78
1D;]	1A;	8gL]	1dd;]
.	.	8f#X	.
.	.	8e	.
.	.	8gJ	.
.	.	2f#;	.
==	==	==	==
*-	*-	*-	*-
!!!system-decoration: [(s1,s2,s3,s4)]
!!!URL-pdf: https://vmirror.imslp.org/files/imglnks/usimg/8/88/IMSLP504269-PMLP05843-BGA-25.1.pdf#page=3 @{SMS1}, page 3
!!!URL-pdf: https://s9.imslp.org/files/imglnks/usimg/1/1d/IMSLP469177-PMLP5843-Bach,_J.S._-_The_Art_of_the_Fugue.pdf#page=1 @{SMS2}, page 1
!!!URL-youtube: https://www.youtube.com/watch?v=OMtjlaDEMdI&t=5s Netherlands Bach Society/Malinowski
!!!URL-youtube: https://www.youtube.com/watch?v=N6sUlZa-IrU&t=7s Netherlands Bach Society
!!!URL-youtube: https://www.youtube.com/watch?v=zwkzf-KUNPM Glenn Gould
!!!URL-youtube: https://www.youtube.com/watch?v=8ILd81jY1v4 Julliard String Quartet
!!!URL-youtube: https://www.youtube.com/watch?v=drVbEHEYxJg Ludvig Käll, organ in Lau Church, Gotland island, 3 august 2019.
!!!SMS: @{SMS1}
!!!SMS1: Bach-Gesellschaft Ausgabe, Band 25.1 Leipzig: Breitkopf und Härtel, 1878. Plate B.W. XXV (1).
!!!SMS2: Bach-Gesellschaft Ausgabe, Band 47 Leipzig: Breitkopf und Härtel, 1926. Plate B.W. XLVII.
!!!PED: Wilhelm Rust
!!!PED-ODT: 1822-1892
!!!ONB: Die Kunst der Fuge nach dem Berliner Autograph in Anordnung und Lesarten
!!!ENC: Craig Stuart Sapp
!!!END: 2024/03/21
!!!EED: Craig Stuart Sapp
!!!EEV: 2024/03/21
!!!title: @{OPR} (@{SCA}), @{OTL}
!!!filter: msearch -d "2 2 2 2 2 4 4" -c dodgerblue
!!!filter: satb2gs
!!!filter: shed -e s/C1/G2/I
